X: 317
T: Da Liaoxian
L: 1/8
M: 2/4
K: F
c2c2 [I:setbarnb 1]| 
d fc2 | 
c d c A | 
G FG2 | 
G Ac2 | 
d fc2 | 
A G F F | 
G FG2 | 
A FG2 | 
A FG2 | 
A G A G | 
A FG2 | 
c Ac2 | 
G A c F | 
DF2A | 
G2G D | 
C4 |]

@@@ Tune index: 9191
